dist/img/5.svg

<svg version="1.1" xmlns="http://www.w3.org/2000/svg" xmlns:xlink="http://www.w3.org/1999/xlink" x="0px" y="0px" width="413px" height="512px"><path d="M206.09198,117.7750702L0,0.286v512L206.09198,394.796936l206.09198,117.4890747v-512L206.09198,117.7750702z M103.4240799,256.2859802L206.09198,197.7575073l102.6678772,58.5284729l-102.6679077,58.5284729L103.4240799,256.2859802z M68.2076035,112.7626572l73.4360733,41.8708725l-73.4360733,41.8708649V112.7626572z M68.2076035,316.0675659l67.9483566,38.7165222l-67.9483566,38.7380981V316.0675659z M276.0279846,354.7841187l67.9483643-38.7380981v77.4546204L276.0279846,354.7841187z M270.5186768,154.6335449l73.4360962-41.8708649v83.7417603L270.5186768,154.6335449z"/></svg>

<svg xmlns="http://www.w3.org/2000/svg" width="413" height="512"><path d="M206.092 117.775L0 .286v512l206.092-117.49 206.092 117.49v-512l-206.092 117.49zM103.424 256.286l102.668-58.528 102.668 58.528-102.668 58.528-102.668-58.528zM68.208 112.763l73.436 41.87-73.436 41.871v-83.741zm0 203.305l67.948 38.716-67.948 38.738v-77.454zm207.82 38.716l67.948-38.738v77.455l-67.948-38.717zm-5.51-200.15l73.437-41.871v83.741l-73.436-41.87z"/></svg>
